X:52
T:Dublin Lasses (reel), The 
B:CRE1.193 (Gearrchailiu Bhaile Atha Cliath)
F:file ID: cre.1/052dub_L
S:Tommy Potts
M:C
L:1/8
Q:180
R:reel
K:Em
d^c|BGEF GBAG|(3FED AD BDA^c|BGEF G3A|BA (3B^cd ecdc|
BGEF GBAG|(3FED AD BDA^c|BGEF G3A|BA (3B^cd e3||
f|gfef geag|fede fgaf|gfef geag|fedf e2ef|
gfef geag|fede fgaf|gfed edBA|BA (3B^cd He3|]

%%%

